X:9
T:Seconde suytte de Bransles
C:Dutertre
R:Branle simple
M:C|
L:1/8
K:Dm
%%staves [1 2 3 4]
T:Bransle 1
%%continueall 1
V:1
GABc d2g2 | fedc d2f2 |1 edd^c d4 :|2 edd^c d2d2 |: d3c B2A2 | G2F2 EDG2 | G2^F2 G2d2 | d3c B2A2 |
G2F2 EDG2 |1 G2^F2 G2d2 :|2 G2^F2 G4 |]
V:2
g2g2 a2c'2 | a2b2 a2a2 | b2a2 f4 :| b2a2 f2b2 |: b3a g2f2 | _e2d2 c2Bc | d2d2 B2b2 | b3a g2f2 | _e2d2 c2Bc | d2d2B2b2 :| d2d2B4 |]
V:3
Bcde f2e2 | dcde f2f2 | g2e2 d4 :| g2e2 d2f2 |: f3f d2d2 | B2B2 G2G2 | A2A2 G2f2 | f3f d2d2 | B2B2 G2G2 | A2A2 G2f2 :| A2A2 G4 |]
V:4
G,2G,2 D,2C,2 | D,2G,2 D,2D,2 | G,2A,2 D,4 :| G,2A,2 D,2B,2 |: B,3F, G,2D,2 | _E,2B,,2 C,2E,2 | D,2D,2 G,2B,2 | B,3F, G,2D,2 | _E,2B,,2 C,2E,2 | D,2D,2 G,2B,2 :| D,2D,2 G,4 |]
T:Bransle 2
%%continueall 0
V:1
d2d2 _e2d2 | c2B2 ABcd | cBAG ^F2D2 | d2d2 _e2d2 | c2B2 A2G2 | G2^F2 G4 ::
Bcde f2d2 | cBAG F2B2 | B2A2 B2GA | Bcde f2d2 | cBAG ^F2G2 | G2^F2 G4 :|
V:2
d2g2 g2f2 | f2d2 f2f2 | f3d d2B2  | d2g2 g2f2 | f2d2 f2d2 | d2d2 B4 ::
g2g2 a2b2 | g2_e2 d2d2 | f2f2 d2d2 | g2g2 a2b2 | g2_e2 d2c2 | d2d2 B4 :|
V:3
B2B2 c2A2 | A2B2 c3B | cdcB A2G2 | B2B2 c2A2 | A2B2 c2B2 | A2A2 G4 ::
B2B2 c2d2 | G2c2 A2B2 | c4 B2B2 | B2B2 c2d2 | G2c2 A2G2 | A4 G4 :|
V:4
G,2G,2 C,2D,2 | F,2G,2 F,3B,, | F,B,,F,G, D,2G,,2 | G,2G,2 C,2D,2 | F,2G,2 F,2G,2 | D,2D,2 G,4 ::
G,2G,2 F,2B,,2 | C,2C,2 D,2G,2 | F,2F,2 B,,2G,2 | G,2G,2 F,2B,,2 | C,2C,2 D,2_E,2 | D,2D,2 G,4 :|
T:Bransle 3
V:1
d2d2 d3c | B2A2 G2c2 | cdec f2e2 | d2d2 d3c | B2A2 G2c2 | c2B2 c4 ::
e2e2 e2g2 | f3e d2e2 | f2d2 e2c2 | e2e2 e2g2 | f3e d2c2 | c2B2 c4 :|
V:2
d2d2 d2f2 | g2e2 e2g2 | a2g2 f2a2 | f2d2 d2f2 | g2e2 e2g2 | a2g2 e4 ::
g2g2 g2g2 | a3g g2g2 | a2g2 g2f2 | g2g2 g2g2 | a3g g2g2 | f2d2 e4 :|
V:3
B2B2 B2A2 | B2c2 B2e2 | f2e2 d2c2 | d2B2 B2A2 | B2c2 B2e2 f2d2 c4 ::
G2G2 c3c | A2c2 B2c2 | A2B2 c2A2 | G2G2 c3c | A2c2 B2c2 | d4 c4 :|
V:4
G,2G,2 G,2D,2 | G,2A,2 E,2C,2 | F,2C,2 D,2A,2 | D,2G,2 G,2D,2 | G,2A,2 E,2C,2 | F,2G,2 C,4 ::
C,2C,2 C,2C,2 | F,3C, G,2C,2 | F,2G,2 C,2F,2 |  C,2C,2 C,2C,2 | F,3C, G,2C,2 | F,2G,2 C,4 :|
